COLOR/apps 16/16/org.gnome.Software.svg

<svg height="16" width="15.999999" xmlns="http://www.w3.org/2000/svg" xmlns:xlink="http://www.w3.org/1999/xlink"><linearGradient id="a" gradientTransform="matrix(0 1 -1 0 252 -319.50012)" gradientUnits="userSpaceOnUse" x1="317.26004" x2="338.31595" y1="255.44786" y2="230.85617"><stop offset="0" stop-color="#e8e8e8"/><stop offset="1" stop-color="#f5f5f5"/></linearGradient><path d="m15.499999 5.3543901c0-3.04166-.30899-3.36894-3.32331-3.35403h-4.176689-4.17669c-3.01432-.0149-3.32331.31237-3.32331 3.35403v6.2914599c0 3.04167.30895 3.35404 3.32331 3.35404h4.17669 4.176689c3.01435 0 3.32331-.31238 3.32331-3.35404z" fill="url(#a)"/><path d="m.57812 8.4998901v3.1758899c-.017 3.01433.35794002 3.32422 3.83398 3.32422h7.189449c3.47605 0 3.83203-.30985 3.83203-3.32422v-3.1758899z" fill="#a2bcfe" opacity=".75"/><path d="m10.995511 8.822875a3.5 3.5 0 0 1 -3.3179419 3.672507 3.5 3.5 0 0 1 -3.6730421-3.3173496 3.5 3.5 0 0 1 3.3167561-3.6735777 3.5 3.5 0 0 1 3.6741129 3.316163" fill="#1a7fd4"/><g fill="#e7f0fc"><path d="m7.999991 7.499905h1v1h-1z"/><path d="m5.999991 7.499905h1v1h-1z"/><path d="m5.999991 9.499905h1v1h-1z"/><path d="m7.999991 9.499905h1v1h-1z"/></g><path d="m3.8242188 2c-3.01432005-.0149-3.3242188.3118556-3.3242188 3.3535156v.5019532c0-3.0416601.30989875-3.3703688 3.3242188-3.3554688h4.1757812 4.175781c3.01432-.01491 3.324219.3138088 3.324219 3.3554688v-.5019532c0-3.04166-.309899-3.3684256-3.324219-3.3535156h-4.175781z" fill="#fff" opacity=".3"/><path d="m4.99999 3.4998901s0-2.5 3-2.5c2.999999 0 2.999999 2.5 2.999999 2.5" fill="none" stroke="#80a3fa" stroke-linecap="round"/><path d="m12.175781 14.999534c3.01432.0149 3.324219-.311855 3.324219-3.353515v-.501954c0 3.041661-.309899 3.370369-3.324219 3.355469h-4.1757812-4.175781c-3.01432003.01491-3.32421903-.313809-3.32421903-3.355469v.501954c0 3.04166.309899 3.368425 3.32421903 3.353515h4.175781z" opacity=".2"/></svg>

<?xml version="1.0" encoding="UTF-8" standalone="no"?>
<svg
   xmlns:dc="http://purl.org/dc/elements/1.1/"
   xmlns:cc="http://creativecommons.org/ns#"
   xmlns:rdf="http://www.w3.org/1999/02/22-rdf-syntax-ns#"
   xmlns:svg="http://www.w3.org/2000/svg"
   xmlns="http://www.w3.org/2000/svg"
   xmlns:xlink="http://www.w3.org/1999/xlink"
   xmlns:sodipodi="http://sodipodi.sourceforge.net/DTD/sodipodi-0.dtd"
   xmlns:inkscape="http://www.inkscape.org/namespaces/inkscape"
   height="16"
   width="15.999999"
   version="1.1"
   id="svg21"
   sodipodi:docname="org.gnome.Software.svg"
   inkscape:version="0.92.5 (2060ec1f9f, 2020-04-08)">
  <metadata
     id="metadata27">
    <rdf:RDF>
      <cc:Work
         rdf:about="">
        <dc:format>image/svg+xml</dc:format>
        <dc:type
           rdf:resource="http://purl.org/dc/dcmitype/StillImage" />
        <dc:title></dc:title>
      </cc:Work>
    </rdf:RDF>
  </metadata>
  <defs
     id="defs25">
    <clipPath
       clipPathUnits="userSpaceOnUse"
       id="clipPath983">
      <path
         sodipodi:nodetypes="scccssscsss"
         inkscape:connector-curvature="0"
         id="path985"
         d="m 325.09646,237 c -2.80769,0 -3.10979,0.28839 -3.09603,3.10176 V 244 v 3.89824 c -0.0138,2.81337 0.28834,3.10176 3.09603,3.10176 h 5.8075 C 333.71166,251 334,250.71165 334,247.89824 V 244 240.10176 C 334,237.28836 333.71165,237 330.90396,237 Z"
         style="color:#000000;display:inline;overflow:visible;visibility:visible;opacity:1;fill:#46a926;fill-opacity:1;fill-rule:nonzero;stroke:none;stroke-width:2;stroke-miterlimit:4;stroke-dasharray:none;stroke-opacity:1;marker:none;enable-background:accumulate" />
    </clipPath>
    <linearGradient
       inkscape:collect="always"
       xlink:href="#linearGradient4245"
       id="linearGradient4878"
       x1="317.26004"
       y1="255.44786"
       x2="338.31595"
       y2="230.85617"
       gradientUnits="userSpaceOnUse"
       gradientTransform="rotate(90,285.75006,-33.75006)" />
    <linearGradient
       id="linearGradient4245"
       inkscape:collect="always">
      <stop
         id="stop4241"
         offset="0"
         style="stop-color:#e8e8e8;stop-opacity:1" />
      <stop
         id="stop4243"
         offset="1"
         style="stop-color:#f5f5f5;stop-opacity:1" />
    </linearGradient>
  </defs>
  <sodipodi:namedview
     pagecolor="#ffffff"
     bordercolor="#666666"
     borderopacity="1"
     objecttolerance="10"
     gridtolerance="10"
     guidetolerance="10"
     inkscape:pageopacity="0"
     inkscape:pageshadow="2"
     inkscape:window-width="1920"
     inkscape:window-height="1016"
     id="namedview23"
     showgrid="false"
     inkscape:zoom="14.75"
     inkscape:cx="7.9999995"
     inkscape:cy="8"
     inkscape:window-x="0"
     inkscape:window-y="27"
     inkscape:window-maximized="1"
     inkscape:current-layer="svg21" />
  <linearGradient
     id="a"
     gradientTransform="matrix(0 -1 1 0 -235.999987 335.999733)"
     gradientUnits="userSpaceOnUse"
     x1="317.26004"
     x2="338.31595"
     y1="255.44786"
     y2="230.85617">
    <stop
       offset="0"
       stop-color="#f37e40"
       id="stop2" />
    <stop
       offset="1"
       stop-color="#f34f17"
       id="stop4" />
  </linearGradient>
  <path
     style="color:#000000;display:inline;overflow:visible;visibility:visible;fill:url(#linearGradient4878);fill-opacity:1;fill-rule:nonzero;stroke:none;stroke-width:1;marker:none;enable-background:accumulate"
     d="m 15.499999,5.3543901 c 0,-3.04166 -0.30899,-3.36894 -3.32331,-3.35403 H 8 3.82331 C 0.80899,1.9854601 0.5,2.3127301 0.5,5.3543901 V 11.64585 c 0,3.04167 0.30895,3.35404 3.32331,3.35404 H 8 12.176689 c 3.01435,0 3.32331,-0.31238 3.32331,-3.35404 z"
     id="path918"
     inkscape:connector-curvature="0"
     sodipodi:nodetypes="scccssscsss" />
  <path
     style="color:#000000;display:inline;overflow:visible;visibility:visible;opacity:0.75;fill:#a2bcfe;fill-opacity:1;fill-rule:nonzero;stroke:none;stroke-width:1;marker:none;enable-background:accumulate"
     d="M 0.57812,8.4998901 V 11.67578 C 0.56112,14.69011 0.93606002,15 4.4121,15 h 7.189449 c 3.47605,0 3.83203,-0.30985 3.83203,-3.32422 V 8.4998901 Z"
     id="path918-7"
     inkscape:connector-curvature="0"
     sodipodi:nodetypes="ccssscc" />
  <path
     style="display:inline;opacity:1;vector-effect:none;fill:#1a7fd4;fill-opacity:1;stroke:none;stroke-width:2;stroke-linecap:round;stroke-linejoin:round;stroke-miterlimit:4;stroke-dasharray:none;stroke-dashoffset:0;stroke-opacity:1;enable-background:new"
     id="path3083-5-4"
     sodipodi:type="arc"
     sodipodi:cx="7.4999905"
     sodipodi:cy="8.9998894"
     sodipodi:rx="3.5"
     sodipodi:ry="3.5"
     sodipodi:start="6.2325882"
     sodipodi:end="6.2319424"
     sodipodi:open="true"
     d="M 10.995511,8.822875 A 3.5,3.5 0 0 1 7.6775691,12.495382 3.5,3.5 0 0 1 4.004527,9.1780324 3.5,3.5 0 0 1 7.3212831,5.5044547 3.5,3.5 0 0 1 10.995396,8.8206177" />
  <rect
     style="display:inline;opacity:1;vector-effect:none;fill:#e7f0fc;fill-opacity:1;stroke:none;stroke-width:2;stroke-linecap:round;stroke-linejoin:round;stroke-miterlimit:4;stroke-dasharray:none;stroke-dashoffset:0;stroke-opacity:1;enable-background:new"
     id="rect3189-97-5-5"
     width="1"
     height="1"
     x="7.9999905"
     y="7.4999051" />
  <rect
     style="display:inline;opacity:1;vector-effect:none;fill:#e7f0fc;fill-opacity:1;stroke:none;stroke-width:2;stroke-linecap:round;stroke-linejoin:round;stroke-miterlimit:4;stroke-dasharray:none;stroke-dashoffset:0;stroke-opacity:1;enable-background:new"
     id="rect3189-6-7-5"
     width="1"
     height="1"
     x="5.9999905"
     y="7.4999051" />
  <rect
     style="display:inline;opacity:1;vector-effect:none;fill:#e7f0fc;fill-opacity:1;stroke:none;stroke-width:2;stroke-linecap:round;stroke-linejoin:round;stroke-miterlimit:4;stroke-dasharray:none;stroke-dashoffset:0;stroke-opacity:1;enable-background:new"
     id="rect3189-1-6-4"
     width="1"
     height="1"
     x="5.9999905"
     y="9.4999046" />
  <rect
     style="display:inline;opacity:1;vector-effect:none;fill:#e7f0fc;fill-opacity:1;stroke:none;stroke-width:2;stroke-linecap:round;stroke-linejoin:round;stroke-miterlimit:4;stroke-dasharray:none;stroke-dashoffset:0;stroke-opacity:1;enable-background:new"
     id="rect3189-29-5-7"
     width="1"
     height="1"
     x="7.9999905"
     y="9.4999046" />
  <path
     style="color:#000000;display:inline;overflow:visible;visibility:visible;fill:#ffffff;fill-opacity:1;fill-rule:nonzero;stroke:none;stroke-width:1;marker:none;enable-background:accumulate;opacity:0.3"
     d="M 3.8242188 2 C 0.80989875 1.9851 0.5 2.3118556 0.5 5.3535156 L 0.5 5.8554688 C 0.5 2.8138087 0.80989875 2.4851 3.8242188 2.5 L 8 2.5 L 12.175781 2.5 C 15.190101 2.48509 15.5 2.8138088 15.5 5.8554688 L 15.5 5.3535156 C 15.5 2.3118556 15.190101 1.98509 12.175781 2 L 8 2 L 3.8242188 2 z "
     id="path887" />
  <path
     style="display:inline;fill:none;stroke:#80a3fa;stroke-width:1;stroke-linecap:round;stroke-linejoin:miter;stroke-miterlimit:4;stroke-dasharray:none;stroke-opacity:1;enable-background:new"
     d="m 4.99999,3.4998901 c 0,0 0,-2.5 3,-2.5 2.999999,0 2.999999,2.5 2.999999,2.5"
     id="path24398-3-6-7"
     inkscape:connector-curvature="0"
     sodipodi:nodetypes="csc" />
  <path
     id="path896"
     d="M 12.175781,14.999534 C 15.190101,15.014434 15.5,14.687679 15.5,11.646019 v -0.501954 c 0,3.041661 -0.309899,3.370369 -3.324219,3.355469 H 7.9999998 3.8242188 C 0.80989877,14.514444 0.49999977,14.185725 0.49999977,11.144065 v 0.501954 c 0,3.04166 0.309899,3.368425 3.32421903,3.353515 h 4.175781 z"
     style="color:#000000;display:inline;overflow:visible;visibility:visible;opacity:0.2;fill:#000000;fill-opacity:1;fill-rule:nonzero;stroke:none;stroke-width:1;marker:none;enable-background:accumulate"
     inkscape:connector-curvature="0" />
</svg>
